X:1
T:Let's be Gay
R:reel
B:Ryan's Mammoth Collection
N: 163
Z: Contributed by Ray Davies,  ray:davies99.freeserve.co.uk
M:C|
L:1/8
K:G
vG2Bd g2dB | g2dB cAFA | G2Bd g2dB | cedc BGG2 ::
 g2ge a2af | g2ge beef | gfge a2af | gedc BGG2 :|
